X:1301
T: Katonti
C: Yonatan Razel 2012
O: Israel
F: https://www.youtube.com/watch?v=HZYivKwVmJc
M: 3/4
L: 1/8
K: Bm clef=treble
Q: 1/4=120
%%MIDI program 0 Acoustic Piano
%%MIDI bassprog 24 Acoustic Guitar
%%MIDI gchord fz
dc          |"B" B4A2   |"F#"F4 FG   |A3ccd      |\
"B"B4 dc    |B4A2       |"F#"F4G2    |def3f      |
fge4        |cde2e2     |efe4        |"D#m"dcB2A2| "B"B6      |\
%%MIDI program 110 Fiddle
F2 F2 F2    |FF F3 F    |"E"E4 C2    |"B"B,4 A,2 |
A,2 D2 F2   |"F#"A4 ^G2 |F6-         |F2 z2 F2   |\
"B"B2 F2 F2 |F2 F2 E2   |"E"E4 F2    |G4 F2      |
"B"F2 D2 B,2|"E"C4 D2   |"B"B,6      |:\
FB d2 z2    |FB dz ed   |"F#"c2 B2 A2|"B"B2 z2 A2|
"F#"f2 e2 d2|"E"e2 d2 c2|"F#"dc B2 c2|[1c4 z2    :|[2 "B"B4 z2|




